X:1
T:Orsa bella e crudele
T:Constantijn Huygens
T:Orsa bella e crudele
C:Constantijn Huygens
%%score 1 2 { ( 3 5 ) | 4 }
L:1/8
Q:1/4=60
M:4/4
K:Bb
V:1 treble nm="Soprano" snm="S"
V:2 treble transpose=-12 nm="Viola da Gamba" snm="V.Gam."
V:3 treble nm="Harpsichord" snm="Hpschd."
V:5 treble 
V:4 bass 
V:1
 z2 dd d2 cB | B2 G2 z B2 E | EE- E4 EE- | E2 E2 z2 EF | G2 GA B2 B2 | B3 B c2 c2 | z F F3 FGG | %7
w: Or- sa bel- la e cru-|de- le, Stan- co|da lun- * ga trac-|* cia, Per la|sel- va d'A- mor men'|vò se guen- do,|Che sor- da à le que-|
 _A2 A2 z A c2- | cc =B>B c2 d2 | d3 B A2 A2 :: d6 AB | F3 G A-A/4 G/4F/4E/4 D2 | F4 BAGF | %13
w: re- le E cie-|* ca al mio do- lor sen'|va fug- gen- do.|Ahi do- lo-|ro- sa cac- * cia, _ _ _|Men- tre ch'a lei pia-|
 F2 B4 BB | c2 d2 z2 dd | f2 ee d2 B2 | A2 d4 ^FG | A4 G4 :| %18
w: gar pren- do- de-|si- o, Il pia-|ga- to e la pre- da, ohi-|mè, ohi- mè, son'|i- o.|
V:2
 g4 ^f4 | g4 e4 | e8 | e8 | d2 c2 B2 A2 | G4 F4 | f4 F4 | f4 f4 | e2 d2 c2 =B2 | %9
 !courtesy!_B2 G2 d4 :: B4 c4 | d2 D6 | d6 e2 | b4 g4 | f2 b2 B4- | B2 c2 d4 | D8 | d4 G4 :| %18
V:3
 z2 [GB]2 [^FA]2 [CEA]2 | [B,DG]4 [B,EG]4 | [G,B,E]8 | [G,B,E]8 | [B,DG]2 [CEG]2 [B,DF]4 | %5
 [B,DG]4 [CFA]4 | [A,CF]8 | [_A,CF]8 | [CG]2 [B,DG]2 [CEG]2 [=B,DG]2 | [B,DB]4 [A,D^F]4 :: %10
 [DFB]4 [CFA]4 | [A,DF]2 [B,DG]2 [FA][FAd] [Bd]c/4B/4A/4G/4 | [FA]2 [FB]2 [FB]2 [FA]2 | %13
 [DFB]4 [DGB]4 | [FAc]2 [FBd]2 z4 | [FBd]2 [EGc]2 [DGB]2 [B,DG]2 | [A,DF]4 [A,D^F]4 | G2 ^F2 G4 :| %18
V:4
 G,4 ^F,4 | G,4 E,4 | E,8 | E,8 | D,2 C,2 B,,2 A,,2 | G,,4 F,,4 | F,4 F,,4 | F,4 F,4 | %8
 E,2 D,2 C,2 =B,,2 | !courtesy!_B,,2 G,,2 D,4 :: B,,4 C,4 | D,2 D,,6 | D,6 E,2 | B,4 G,4 | %14
 F,2 B,2 B,,4- | B,,2 C,2 D,4 | D,,8 | D,4 G,,4 :| %18
V:5
 x8 | x8 | x8 | x8 | x8 | x8 | x8 | x8 | x8 | x8 :: x8 | x8 | x8 | x8 | x8 | x8 | x8 | %17
 [A,D]4 [=B,D]4 :| %18

